svg/Pictogram/pictograms-nps-services-lockers-storage.svg

<svg xmlns="http://www.w3.org/2000/svg" width="123.55" height="123.54" viewBox="-0.258 -0.548 123.547 123.539" enable-background="new -0.258 -0.548 123.547 123.539"><path d="m108.96 123.5c8.156 0 14.773-6.617 14.773-14.773v-94.02c0-8.148-6.617-14.742-14.773-14.742h-94.02c-8.148 0-14.765 6.593-14.765 14.742v94.02c0 8.156 6.617 14.773 14.766 14.773h94.02"/><path d="m14.945 2.473c-6.757 0-12.265 5.492-12.265 12.242v94.02c0 6.773 5.508 12.281 12.266 12.281h94.02c6.766 0 12.281-5.508 12.281-12.281v-94.02c0-6.75-5.516-12.242-12.281-12.242h-94.02"/><g fill="#fff"><path d="m82.31 27.621l-3.01-3.03-2.906 2.961-2.883-2.906-2.875 2.906-2.859-2.906-3.75 3.781-4.789.047c-2.047 3.641-5.93 6.133-10.398 6.133-6.641 0-12.02-5.375-12.02-12.02s5.375-12.01 12.02-12.01c4.422 0 8.227 2.438 10.328 6l24.16.055 4.055 4.102c.633.633.578 1.172.023 1.758l-5.03 5.102m-38.79-1.954c1.781 0 3.227-1.469 3.227-3.25 0-1.758-1.445-3.219-3.227-3.219s-3.219 1.461-3.219 3.219c0 1.781 1.438 3.25 3.219 3.25z"/><path d="m105.42 41.33v69.72h-87.03v-69.72h87.03m-79.72 7.313v55.1h72.39v-55.1h-72.39"/><path d="m45.602 92.81h-3.383c-2.32 0-4.562-1.703-4.562-4.688 0 0 0-21.281 0-21.328 0-2.664 2.195-4.672 4.562-4.672h3.383v30.688"/><path d="m78.23 92.81h3.391c2.297 0 4.562-1.703 4.562-4.688 0 0 0-21.281 0-21.328 0-2.664-2.195-4.672-4.562-4.672h-3.391v30.688"/><path d="m68.27 62.18v-4.297c0-1.609-1.422-2.633-3.125-2.633h-6.539c-1.695 0-3.125 1.023-3.125 2.633v4.297h-6.141v30.688h25.1v-30.688h-6.172m-2.344 0h-8.211v-4.43h8.211v4.43"/></g></svg>

<?xml version="1.0" encoding="iso-8859-1"?>
<!-- Generator: Adobe Illustrator 13.0.2, SVG Export Plug-In . SVG Version: 6.00 Build 14948)  -->
<!DOCTYPE svg PUBLIC "-//W3C//DTD SVG 1.1//EN" "http://www.w3.org/Graphics/SVG/1.1/DTD/svg11.dtd">
<svg version="1.1" id="Layer_1" xmlns="http://www.w3.org/2000/svg" xmlns:xlink="http://www.w3.org/1999/xlink" x="0px" y="0px"
	 width="123.547px" height="123.539px" viewBox="-0.258 -0.548 123.547 123.539"
	 style="enable-background:new -0.258 -0.548 123.547 123.539;" xml:space="preserve">
<g>
	<path d="M108.961,123.504c8.156,0,14.773-6.617,14.773-14.773V14.715c0-8.148-6.617-14.742-14.773-14.742H14.945
		C6.797-0.027,0.18,6.566,0.18,14.715v94.016c0,8.156,6.617,14.773,14.766,14.773H108.961z"/>
	<path d="M14.945,2.473C8.188,2.473,2.68,7.965,2.68,14.715v94.016c0,6.773,5.508,12.281,12.266,12.281h94.016
		c6.766,0,12.281-5.508,12.281-12.281V14.715c0-6.75-5.516-12.242-12.281-12.242H14.945z"/>
	<path style="fill:#FFFFFF;" d="M82.305,27.621l-3.008-3.031l-2.906,2.961l-2.883-2.906l-2.875,2.906l-2.859-2.906l-3.75,3.781
		l-4.789,0.047c-2.047,3.641-5.93,6.133-10.398,6.133c-6.641,0-12.016-5.375-12.016-12.016s5.375-12.008,12.016-12.008
		c4.422,0,8.227,2.438,10.328,6l24.164,0.055l4.055,4.102c0.633,0.633,0.578,1.172,0.023,1.758l-5.031,5.102 M43.586,25.645
		c1.781,0,3.227-1.469,3.227-3.25c0-1.758-1.445-3.219-3.227-3.219s-3.219,1.461-3.219,3.219
		C40.367,24.176,41.805,25.645,43.586,25.645z"/>
	<path style="fill:#FFFFFF;" d="M105.422,41.332v69.719H18.391V41.332H105.422z M25.703,48.645v55.102h72.391V48.645H25.703z"/>
	<path style="fill:#FFFFFF;" d="M45.602,92.809h-3.383c-2.32,0-4.562-1.703-4.562-4.688c0,0,0-21.281,0-21.328
		c0-2.664,2.195-4.672,4.562-4.672h3.383V92.809z"/>
	<path style="fill:#FFFFFF;" d="M78.227,92.809h3.391c2.297,0,4.562-1.703,4.562-4.688c0,0,0-21.281,0-21.328
		c0-2.664-2.195-4.672-4.562-4.672h-3.391V92.809z"/>
	<path style="fill:#FFFFFF;" d="M68.266,62.176v-4.297c0-1.609-1.422-2.633-3.125-2.633h-6.539c-1.695,0-3.125,1.023-3.125,2.633
		v4.297h-6.141v30.688h25.102V62.176H68.266z M65.922,62.176h-8.211v-4.43h8.211V62.176z"/>
</g>
</svg>
